dist/assets/add.svg

<svg width="104" height="104" viewBox="0 0 104 104" fill="none" xmlns="http://www.w3.org/2000/svg">
<path d="M39.2423 29.9697C40.7569 29.0952 42.6936 29.6142 43.568 31.1288L53.068 47.5833L69.5225 38.0833C71.0371 37.2088 72.9738 37.7277 73.8483 39.2423C74.7227 40.7569 74.2038 42.6936 72.6892 43.5681L56.2347 53.0681L65.7347 69.5226C66.6092 71.0372 66.0902 72.9739 64.5756 73.8483C63.061 74.7228 61.1243 74.2038 60.2499 72.6892L50.7499 56.2348L34.2954 65.7348C32.7808 66.6092 30.8441 66.0903 29.9697 64.5757C29.0952 63.0611 29.6141 61.1244 31.1287 60.2499L47.5832 50.7499L38.0832 34.2954C37.2088 32.7808 37.7277 30.8441 39.2423 29.9697Z" fill="#FFAD60"/>
</svg>

<svg width="104" height="104" fill="none" xmlns="http://www.w3.org/2000/svg"><path d="M39.242 29.97a3.167 3.167 0 014.326 1.159l9.5 16.454 16.454-9.5a3.167 3.167 0 113.167 5.485l-16.454 9.5 9.5 16.455a3.167 3.167 0 11-5.485 3.166l-9.5-16.454-16.455 9.5a3.167 3.167 0 01-3.166-5.485l16.454-9.5-9.5-16.455a3.167 3.167 0 011.16-4.325z" fill="#FFAD60"/></svg>
